X:16170
T:Swans Among the Rushes
R:Jig
S:(Seamus Egan)
H:
C:Ed Reavy
N:
D:
Z:Adrian Scahill
M:6/8
L:1/8
K:G
gfg agf|gdB e2d|c3 EFG|AFE DB,C|\
DGB B3|dcB c3|fed cAF|AGF G3:||\
Bcd efg|fdf ecA|Bcd efg|fef g3|\
Bcd efg|fdf ecA|f3 agf|gba g3:||


